X:1
T: Yeshzi Polska Nie Sginela (Polish Folk Song)
C:Kammen Collection, Vol. 1
C:Arr. T. Traub, 22-Apr-03
Z:Kammen Collection, Vol. 1
Z:Poland
R:Waltz
M:3/8
K: C
L: 1/16
"C" c>e g2g2|g>g agfe|"G"dd g3f|"C"f2 e4|"C" c>e g2g2|g>g agfe|"G"dd g3B|"C"d2 " fine"c4||
|: "G"ed d2>f2| "C"fe e2>g2|"F"g-ff-efa|"C".a2-g4|c'>c' c'.b.a.g|"F" a>a a.g.f.e|1 "G"dd g2>f2|"C"f2 e4 :|2 "G"da g2>B2|"C"d2 c4|]
